X: 920
T: Kiss Me Darling   #2
R: jig
%S: s:3 b:14(6+4+4)
B: O'Neill's 1850 #920
Z: Tom Keays (htkeays@mailbox.syr.edu)
%abc 1.6
M: 6/8
L: 1/8
K: D
"^A"|: d2e f2d | g2e f2d |1,3 d2e fed | cec ABc :|2,4 fga gec | dAF D3 :|
"^B"|: g | fed {d}c2B | A2A A2g | fed c2A | GEF G2 ||
  y2   g | fed cBA | AFG A2g | fga ABc | dAF D2 :|
